src/lib/packages/icons/src/assets/line/dollar-send-square.svg

<svg width="24" height="24" viewBox="0 0 24 24" fill="none" xmlns="http://www.w3.org/2000/svg">
<path d="M17.53 4.53002L18.25 3.81005V6.99999C18.25 7.41399 18.586 7.74999 19 7.74999C19.414 7.74999 19.75 7.41399 19.75 6.99999V3.81103L20.47 4.531C20.616 4.677 20.808 4.75097 21 4.75097C21.192 4.75097 21.384 4.678 21.53 4.531C21.823 4.238 21.823 3.76296 21.53 3.46996L19.53 1.46996C19.461 1.40096 19.378 1.34598 19.286 1.30798C19.103 1.23198 18.896 1.23198 18.713 1.30798C18.621 1.34598 18.538 1.40096 18.469 1.46996L16.469 3.46996C16.176 3.76296 16.176 4.238 16.469 4.531C16.762 4.824 17.237 4.82302 17.53 4.53002ZM11.65 8.86096H12.35C12.922 8.86096 13.401 9.29096 13.466 9.86096C13.512 10.273 13.88 10.5729 14.295 10.5229C14.707 10.4769 15.003 10.106 14.957 9.69396C14.822 8.48996 13.889 7.56299 12.723 7.39599V6.99999C12.723 6.58599 12.387 6.24999 11.973 6.24999C11.559 6.24999 11.223 6.58599 11.223 6.99999V7.40502C9.98099 7.61102 9.02899 8.685 9.02899 9.984C9.02899 10.571 9.22599 11.145 9.58099 11.593C9.93699 12.052 10.445 12.3839 11.015 12.5279L12.623 12.927C13.124 13.054 13.474 13.502 13.474 14.016C13.474 14.314 13.357 14.595 13.144 14.808C12.931 15.021 12.65 15.1379 12.352 15.1379H11.652C11.08 15.1379 10.601 14.7079 10.536 14.1379C10.49 13.7259 10.115 13.4239 9.707 13.4759C9.295 13.5219 8.99901 13.893 9.04501 14.305C9.17801 15.492 10.086 16.413 11.229 16.598V17C11.229 17.414 11.565 17.75 11.979 17.75C12.393 17.75 12.729 17.414 12.729 17V16.602C13.284 16.521 13.799 16.275 14.204 15.87C14.7 15.374 14.974 14.716 14.974 14.017C14.974 12.815 14.159 11.769 12.988 11.473L11.38 11.074C11.132 11.012 10.921 10.873 10.762 10.67C10.612 10.48 10.529 10.236 10.529 9.98498C10.528 9.36498 11.031 8.86096 11.65 8.86096ZM21 9.24999C20.586 9.24999 20.25 9.58599 20.25 9.99999V17.62C20.25 19.439 19.439 20.25 17.62 20.25H6.38C4.537 20.25 3.75 19.463 3.75 17.62V6.36999C3.75 4.53399 4.537 3.74999 6.38 3.74999H14C14.414 3.74999 14.75 3.41399 14.75 2.99999C14.75 2.58599 14.414 2.24999 14 2.24999H6.38C3.717 2.24999 2.25 3.71299 2.25 6.36999V17.62C2.25 20.283 3.717 21.75 6.38 21.75H17.62C20.283 21.75 21.75 20.283 21.75 17.62V9.99999C21.75 9.58599 21.414 9.24999 21 9.24999Z" fill="currentColor"/>
</svg>

<svg xmlns="http://www.w3.org/2000/svg" width="24" height="24" fill="none"><path fill="currentColor" d="m17.53 4.53.72-.72V7a.75.75 0 0 0 1.5 0V3.811l.72.72a.748.748 0 0 0 1.06 0 .75.75 0 0 0 0-1.061l-2-2a.749.749 0 0 0-.817-.162.749.749 0 0 0-.244.162l-2 2a.75.75 0 1 0 1.061 1.06Zm-5.88 4.331h.7c.572 0 1.051.43 1.116 1a.75.75 0 1 0 1.491-.167 2.616 2.616 0 0 0-2.234-2.298V7a.75.75 0 0 0-1.5 0v.405a2.62 2.62 0 0 0-2.194 2.579c0 .587.197 1.161.552 1.609.356.459.864.79 1.434.935l1.608.399c.501.127.851.575.851 1.089 0 .298-.117.579-.33.792-.213.213-.494.33-.792.33h-.7c-.572 0-1.051-.43-1.116-1a.75.75 0 1 0-1.491.167 2.617 2.617 0 0 0 2.184 2.293V17a.75.75 0 0 0 1.5 0v-.398a2.605 2.605 0 0 0 2.245-2.585 2.623 2.623 0 0 0-1.986-2.544l-1.608-.399a1.121 1.121 0 0 1-.851-1.089 1.122 1.122 0 0 1 1.121-1.124ZM21 9.25a.75.75 0 0 0-.75.75v7.62c0 1.819-.811 2.63-2.63 2.63H6.38c-1.843 0-2.63-.787-2.63-2.63V6.37c0-1.836.787-2.62 2.63-2.62H14a.75.75 0 0 0 0-1.5H6.38c-2.663 0-4.13 1.463-4.13 4.12v11.25c0 2.663 1.467 4.13 4.13 4.13h11.24c2.663 0 4.13-1.467 4.13-4.13V10a.75.75 0 0 0-.75-.75Z"/></svg>
